X:32
T: Die Koenigstochter im Heeresdienst
N: Q1095D
O: Mitteleuropa, Schweiz
N: Melodievergleich zu Q0095, anderes Lied.
R: Jahreszeiten - Lied, Mai
M: 3/8
L: 1/16
K: G
G2 | B2d2c2 | B2G2A2 | B2d2c2 | B4
G2 | B2d2c2 | B2G2A2 | B2dcAF | G4

@@@ Tune index: 1325
